dist/img/sprites/news.svg

<svg width="75" height="75" viewBox="0 0 75 75" fill="none" xmlns="http://www.w3.org/2000/svg">
<g clip-path="url(#clip0_2002_12852)">
<path d="M0.00211996 62.8345C0.00211996 44.4732 0.00211996 26.1119 0.00211996 7.74858C0.665668 5.70333 2.13268 4.99584 4.25052 5.00002C23.6079 5.03341 42.9653 5.0188 62.3226 5.02089C62.6406 5.02089 62.9586 5.01254 63.2745 5.03758C65.1591 5.18576 66.465 6.5423 66.5053 8.40389C66.5265 9.34094 66.5096 10.278 66.5117 11.2151C66.5117 11.9246 66.5117 12.6363 66.5117 13.3751C68.1843 13.3751 69.7467 13.3688 71.307 13.3751C73.5945 13.3876 74.9979 14.7671 74.9979 17.0273C75.0021 31.9033 75.0085 46.7772 74.9788 61.6533C74.9788 62.6216 74.8177 63.6317 74.5039 64.5479C73.3062 68.0582 70.0881 70.1765 66.0983 70.1765C47.0335 70.1786 27.9687 70.1765 8.90384 70.1765C8.61128 70.1765 8.31873 70.1744 8.02617 70.1577C4.47736 69.9636 1.37586 67.5594 0.362513 64.2119C0.224716 63.7569 0.120838 63.2915 0 62.8324L0.00211996 62.8345ZM66.5117 16.7456C66.5117 17.021 66.5117 17.213 66.5117 17.403C66.5117 31.2209 66.5117 45.0388 66.5117 58.8567C66.5117 59.8564 66.6113 59.9649 67.7052 60.2237C68.5723 60.4282 69.0832 61.1002 69.0196 61.9538C68.9581 62.7635 68.3666 63.3792 67.5081 63.4397C67.1031 63.4689 66.6749 63.4293 66.2827 63.327C64.2454 62.7886 63.1261 61.1941 63.1261 58.8692C63.1261 42.3591 63.1261 25.8511 63.1261 9.34094C63.1261 9.03624 63.1261 8.73363 63.1261 8.39763H3.4195C3.40678 8.66894 3.38558 8.90268 3.38558 9.13851C3.38558 26.5606 3.38134 43.9828 3.38558 61.407C3.38558 64.7044 5.52886 66.8415 8.8678 66.8436C27.9581 66.8519 47.0462 66.8519 66.1364 66.8436C69.4733 66.8436 71.6144 64.7024 71.6144 61.4049C71.6187 46.771 71.6165 32.135 71.6144 17.501C71.6144 17.2485 71.5911 16.9981 71.5805 16.7518H66.5117V16.7456Z" fill="#4B8125"/>
<path d="M10.1825 33.4873C10.1825 30.8682 10.1783 28.249 10.1825 25.6298C10.1847 23.9769 10.7549 23.4072 12.417 23.4051C17.7635 23.4009 23.108 23.4009 28.4545 23.4051C30.1399 23.4051 30.725 23.9916 30.725 25.6716C30.725 30.9099 30.7271 36.1482 30.725 41.3866C30.725 43.0019 30.1059 43.6196 28.4842 43.6217C23.1376 43.6259 17.7932 43.6238 12.4467 43.6217C10.8037 43.6217 10.1868 43.0228 10.1847 41.4158C10.1783 38.7716 10.1847 36.1294 10.1847 33.4852L10.1825 33.4873ZM13.619 40.2325H27.2694V26.8069H13.619V40.2304V40.2325Z" fill="#4B8125"/>
<path d="M33.3311 15.0593C40.2125 15.0593 47.0939 15.0593 53.9753 15.0614C54.3166 15.0614 54.6622 15.0614 54.995 15.1219C55.7391 15.2534 56.2712 15.8941 56.3073 16.6475C56.3433 17.3863 55.8579 18.0875 55.1349 18.2732C54.8085 18.3567 54.4629 18.3943 54.1237 18.3943C40.2147 18.4005 26.3056 18.4005 12.3965 18.3984C10.9274 18.3984 10.1345 17.7264 10.2236 16.5807C10.2829 15.821 10.8235 15.2241 11.5909 15.1114C11.9259 15.0614 12.2714 15.0614 12.6128 15.0614C19.5175 15.0593 26.4243 15.0614 33.329 15.0614L33.3311 15.0593Z" fill="#4B8125"/>
<path d="M46.0612 31.7488C48.7705 31.7488 51.4798 31.7488 54.1892 31.7488C54.9502 31.7488 55.6477 31.8741 56.0823 32.5941C56.6377 33.5165 56.1332 34.7541 55.0732 34.9983C54.7213 35.0797 54.3481 35.1005 53.9856 35.1005C48.7133 35.1068 43.4431 35.1068 38.1707 35.1005C37.8315 35.1005 37.486 35.0755 37.1553 35.0108C36.3327 34.8501 35.8006 34.1677 35.8303 33.36C35.86 32.5774 36.4027 31.9596 37.2083 31.824C37.5178 31.7718 37.8379 31.753 38.1538 31.753C40.7889 31.7468 43.4261 31.7509 46.0612 31.7509V31.7488Z" fill="#4B8125"/>
<path d="M46.0894 43.4485C43.3568 43.4485 40.622 43.4568 37.8894 43.4443C36.7022 43.4401 36.026 42.9601 35.8733 42.0773C35.7122 41.1319 36.2422 40.3618 37.2004 40.1782C37.4845 40.1239 37.7813 40.0989 38.0696 40.0968C43.414 40.0926 48.7585 40.0926 54.1029 40.0947C55.4257 40.0947 56.1423 40.5789 56.2758 41.5431C56.4009 42.4509 55.8518 43.2147 54.9381 43.3754C54.6286 43.4297 54.3085 43.4464 53.9926 43.4464C51.3575 43.4527 48.7203 43.4485 46.0852 43.4485H46.0894Z" fill="#4B8125"/>
<path d="M46.0927 26.7568C43.3601 26.7568 40.6253 26.7651 37.8927 26.7526C36.485 26.7463 35.69 25.9679 35.866 24.8117C35.972 24.1105 36.4765 23.5866 37.1931 23.4698C37.5047 23.4197 37.8248 23.4072 38.1407 23.4072C43.4364 23.403 48.732 23.4009 54.0277 23.4113C54.4602 23.4113 54.9181 23.4406 55.3188 23.5804C55.9717 23.8058 56.3533 24.5112 56.3003 25.1957C56.2409 25.9387 55.7724 26.4917 55.0135 26.6545C54.6828 26.7255 54.3393 26.7526 54.0001 26.7547C51.365 26.763 48.7299 26.7589 46.0927 26.7589V26.7568Z" fill="#4B8125"/>
<path d="M46.0682 51.7943C43.3356 51.7943 40.6008 51.8027 37.8682 51.7901C36.6344 51.786 35.9306 51.2371 35.8458 50.2646C35.7737 49.4527 36.2719 48.7432 37.0817 48.5553C37.4103 48.4802 37.7558 48.4468 38.0929 48.4468C43.4119 48.4405 48.733 48.4322 54.052 48.4593C54.5862 48.4614 55.1756 48.5971 55.6377 48.8496C56.2737 49.2002 56.4179 49.868 56.2419 50.5526C56.0787 51.1849 55.6526 51.5981 54.9933 51.7192C54.6604 51.7818 54.3149 51.7881 53.9736 51.7901C51.3384 51.7964 48.7033 51.7922 46.0661 51.7922L46.0682 51.7943Z" fill="#4B8125"/>
<path d="M20.437 60.1381C17.7044 60.1381 14.9718 60.1339 12.237 60.1402C11.5184 60.1402 10.8803 59.9983 10.4626 59.3513C9.8754 58.4435 10.3418 57.1975 11.3975 56.92C11.7452 56.8282 12.1183 56.8031 12.4808 56.801C17.7998 56.7948 23.1209 56.7948 28.4399 56.801C28.8024 56.801 29.1755 56.8344 29.5232 56.9242C30.2397 57.1099 30.7316 57.8299 30.6871 58.5583C30.6404 59.3137 30.1062 59.9461 29.3621 60.0755C29.0526 60.1298 28.7303 60.1318 28.4145 60.1339C25.7539 60.1381 23.0955 60.136 20.4349 60.136L20.437 60.1381Z" fill="#4B8125"/>
<path d="M46.0778 60.1381C43.2964 60.1381 40.5129 60.1506 37.7315 60.1318C36.3981 60.1214 35.6519 59.2824 35.8808 58.1283C36.0377 57.3457 36.6673 56.8553 37.6446 56.8052C38.2043 56.776 38.7661 56.7989 39.3279 56.7989C44.2335 56.7989 49.1391 56.7968 54.0425 56.8031C54.405 56.8031 54.776 56.8365 55.1258 56.922C55.853 57.1036 56.3406 57.7986 56.3088 58.5395C56.277 59.2929 55.7449 59.9377 55.005 60.0734C54.6955 60.1297 54.3732 60.1339 54.0574 60.1339C51.3968 60.1381 48.7384 60.136 46.0778 60.1339V60.1381Z" fill="#4B8125"/>
<path d="M20.4132 51.7944C17.6805 51.7944 14.9458 51.8027 12.2131 51.7902C10.9899 51.7839 10.2797 51.2079 10.2204 50.2333C10.1695 49.4048 10.6635 48.7348 11.4902 48.547C11.7722 48.4823 12.0669 48.4468 12.3573 48.4468C17.7505 48.4406 23.1437 48.4406 28.5369 48.4447C29.7749 48.4447 30.4597 48.8997 30.6356 49.8075C30.8222 50.7676 30.2498 51.6357 29.2661 51.7276C28.3227 51.8152 27.3666 51.7902 26.4148 51.7923C24.4135 51.8006 22.4123 51.7944 20.411 51.7923L20.4132 51.7944Z" fill="#4B8125"/>
</g>
<defs>
<clipPath id="clip0_2002_12852">
<rect width="75" height="75" fill="white"/>
</clipPath>
</defs>
</svg>

<svg width="75" height="75" viewBox="0 0 75 75" fill="none" xmlns="http://www.w3.org/2000/svg"><g clip-path="url(#clip0_2002_12852)" fill="#4B8125"><path d="M.002 62.834V7.75C.666 5.703 2.132 4.996 4.251 5c19.357.033 38.714.019 58.072.02.318 0 .636-.007.952.018 1.884.148 3.19 1.504 3.23 3.366.022.937.005 1.874.007 2.811v2.16c1.672 0 3.235-.006 4.795 0 2.287.013 3.69 1.392 3.69 3.652.005 14.876.011 29.75-.018 44.626 0 .969-.161 1.979-.475 2.895-1.198 3.51-4.416 5.629-8.406 5.629-19.065.002-38.13 0-57.194 0-.293 0-.585-.003-.878-.02-3.549-.193-6.65-2.598-7.663-5.945-.138-.455-.242-.92-.363-1.38l.002.002zm66.51-46.088v42.111c0 1 .1 1.108 1.193 1.367.867.204 1.378.876 1.315 1.73-.062.81-.653 1.425-1.512 1.486a3.828 3.828 0 01-1.225-.113c-2.038-.538-3.157-2.133-3.157-4.458V8.398H3.42c-.013.27-.034.505-.034.74 0 17.423-.005 34.845 0 52.269 0 3.297 2.143 5.434 5.482 5.437 19.09.008 38.178.008 57.268 0 3.337 0 5.478-2.142 5.478-5.44.005-14.633.002-29.269 0-43.903 0-.253-.023-.503-.034-.75h-5.068v-.005z"/><path d="M10.182 33.487c0-2.619-.004-5.238 0-7.857.003-1.653.573-2.223 2.235-2.225 5.347-.004 10.691-.004 16.038 0 1.685 0 2.27.587 2.27 2.267 0 5.238.002 10.476 0 15.715 0 1.615-.62 2.233-2.24 2.235-5.347.004-10.692.002-16.038 0-1.643 0-2.26-.6-2.262-2.206-.007-2.644 0-5.287 0-7.93l-.003.001zm3.437 6.745h13.65V26.808H13.62v13.426zM33.331 15.06l20.644.001c.342 0 .687 0 1.02.06.744.132 1.276.773 1.312 1.527.036.738-.45 1.44-1.172 1.625a4.11 4.11 0 01-1.011.121c-13.91.007-27.818.007-41.727.004-1.47 0-2.263-.672-2.173-1.817a1.58 1.58 0 011.367-1.47c.335-.05.68-.05 1.022-.05 6.904-.002 13.811 0 20.716 0l.002-.002zm12.73 16.689h8.128c.761 0 1.459.125 1.893.845.556.922.051 2.16-1.009 2.404a4.864 4.864 0 01-1.087.102c-5.273.007-10.543.007-15.815 0-.34 0-.685-.025-1.016-.09-.822-.16-1.354-.842-1.325-1.65.03-.783.573-1.4 1.378-1.536.31-.052.63-.071.946-.071 2.635-.006 5.272-.002 7.907-.002v-.002zm.029 11.7c-2.733 0-5.468.008-8.2-.005-1.188-.004-1.864-.484-2.017-1.367-.16-.945.37-1.715 1.327-1.899a4.79 4.79 0 01.87-.081c5.344-.004 10.688-.004 16.033-.002 1.323 0 2.04.484 2.173 1.448.125.908-.424 1.672-1.338 1.832-.31.055-.63.071-.945.071-2.636.007-5.273.003-7.908.003h.004zm.003-16.692c-2.733 0-5.468.008-8.2-.004-1.408-.007-2.203-.785-2.027-1.941a1.563 1.563 0 011.327-1.342c.312-.05.632-.063.948-.063 5.295-.004 10.591-.006 15.887.004.432 0 .89.03 1.29.17.654.225 1.035.93.982 1.615-.06.743-.528 1.296-1.286 1.458a4.857 4.857 0 01-1.014.1c-2.635.009-5.27.005-7.907.005v-.002zm-.025 25.037c-2.732 0-5.467.009-8.2-.004-1.234-.004-1.937-.553-2.022-1.525a1.575 1.575 0 011.236-1.71 4.576 4.576 0 011.01-.108c5.32-.007 10.641-.015 15.96.012a3.463 3.463 0 011.586.39c.636.351.78 1.019.604 1.704-.163.632-.59 1.045-1.249 1.166a5.59 5.59 0 01-1.02.071c-2.635.006-5.27.002-7.907.002l.002.002zm-25.631 8.344c-2.733 0-5.465-.004-8.2.002-.719 0-1.357-.142-1.774-.789-.588-.907-.121-2.154.935-2.431.347-.092.72-.117 1.083-.119 5.319-.006 10.64-.006 15.959 0 .362 0 .735.033 1.083.123.717.186 1.209.906 1.164 1.634-.047.756-.58 1.388-1.325 1.517-.31.055-.632.057-.947.059-2.661.004-5.32.002-7.98.002l.002.002zm25.641 0c-2.782 0-5.565.013-8.347-.006-1.333-.01-2.08-.85-1.85-2.004.157-.782.786-1.273 1.764-1.323.56-.029 1.121-.006 1.683-.006 4.905 0 9.811-.002 14.714.004a4.6 4.6 0 011.084.119c.727.182 1.215.877 1.183 1.617-.032.754-.564 1.399-1.304 1.534-.31.057-.632.06-.948.06-2.66.005-5.319.003-7.98 0v.005zm-25.665-8.344c-2.733 0-5.467.009-8.2-.004-1.223-.006-1.933-.582-1.993-1.557-.05-.828.444-1.498 1.27-1.686.282-.065.577-.1.867-.1a8471.83 8471.83 0 0116.18-.002c1.238 0 1.923.455 2.099 1.362.186.96-.386 1.829-1.37 1.92-.943.088-1.9.063-2.851.065-2.002.009-4.003.002-6.004 0l.002.002z"/></g><defs><clipPath id="clip0_2002_12852"><path fill="#fff" d="M0 0h75v75H0z"/></clipPath></defs></svg>
